!!!COM:	la Rue, Pierre de
!!!CDT:	~1452///-1518/11/20
!!!OPR:	Missa Pascale
!!!ONM:	1
!!!OTL:	Kyrie
!!!AGN:	Mass; Kyrie
!!!SCT:	Rue1023a
!!!SCA:	Rue1023a
!!!voices-OPR:	5
!!!voices:	5
**kern	**kern	**kern	**kern	**kern
*Ivox	*Ivox	*Ivox	*Ivox	*Ivox
*I"Bassus	*I"Tenor2	*I"Tenor	*I"Contra	*I"Discantus
*I'B	*I'T2	*I'T	*I'C	*I'D
*staff5	*staff4	*staff3	*staff2	*staff1
*>[A,B,C]	*>[A,B,C]	*>[A,B,C]	*>[A,B,C]	*>[A,B,C]
*>A	*>A	*>A	*>A	*>A
*clefF4	*clefGv2	*clefGv2	*clefGv2	*clefG2
*k[]	*k[]	*k[]	*k[]	*k[]
*M3/1	*M3/1	*M3/1	*M3/1	*M3/1
*met(O)	*met(O)	*met(O)	*met(O)	*met(O)
!!section: Kyrie I
!!!OMD: Kyrie I
=1-	=1-	=1-	=1-	=1-
1r	0.r	0.r	1g	[0.g
1r	.	.	2g\	.
.	.	.	1e	.
1G	.	.	.	.
.	.	.	4d\	.
.	.	.	4c\	.
=2	=2	=2	=2	=2
2G\	0.r	0.r	1B	0.g]
1E	.	.	.	.
.	.	.	1e	.
4D\	.	.	.	.
4C/	.	.	.	.
2BB/	.	.	2d\	.
2E\	.	.	2B\	.
=3	=3	=3	=3	=3
2.AA/	1c	0A	2.c\	[0.a
4BB/	.	.	4d\	.
2C/	2c\	.	2e\	.
2D\	1A	.	2f\	.
1AA	.	1A	2.c\	.
.	4G/	.	.	.
.	4F/	.	4d\	.
=4	=4	=4	=4	=4
2AA/	1E	0.c	2e\	0.a]
2.C/	.	.	2.e\	.
.	1E	.	.	.
4BB/	.	.	4d\	.
4AA/	.	.	4c\	.
4GG/	.	.	4B\	.
[1FF	[1F	.	1A	.
=5	=5	=5	=5	=5
1FF]	1F]	0A	2r	[0.cc
.	.	.	2f\	.
2.FF/	1F	.	1f	.
4GG/	.	.	.	.
2AA/	1C	[1c	2e\	.
2FF/	.	.	2f\	.
=6	=6	=6	=6	=6
2.C/	0.r	2c\]	1.e	0cc]
.	.	4B\	.	.
4D\	.	4A/	.	.
4E\	.	2G/	.	.
4C/	.	.	.	.
1F	.	1A	2c\	.
.	.	.	2d\	1b
2E\	.	2G/	2e\	.
=7	=7	=7	=7	=7
1F	2r	0.A	0c	[0.a
.	2F/	.	.	.
1FF	1F	.	.	.
2r	1D	.	2.f\	.
2F\	.	.	.	.
.	.	.	4e\	.
=8	=8	=8	=8	=8
2.F\	2.A/	0.r	4d\	0a]
.	.	.	4c\	.
.	.	.	4d\	.
4E\	4G/	.	4c\	.
2D\	2F/	.	4B\	.
.	.	.	4A/	.
2C/	2E/	.	1A	.
1BB	1D	.	.	1dd
.	.	.	2G#i/	.
=9	=9	=9	=9	=9
1AA	0E	0.r	2A/	2.cc\
.	.	.	2.e\	.
.	.	.	.	4b\
1r	.	.	.	2b\
.	.	.	4d\	.
.	.	.	2c\	1a
1r	1E	.	1B	.
.	.	.	.	2g#i/
=10	=10	=10	=10	=10
0AA	1r	0c	0A	0a
.	2r	.	.	.
.	2E/	.	.	.
2.C/	2.E/	1c	1r	1r
4D\	4F/	.	.	.
=11	=11	=11	=11	=11
4E\	4G/	0B	0.r	0.r
4F\	4A/	.	.	.
1G	1B	.	.	.
1E	1G	.	.	.
.	.	1c	.	.
[2F\	[2A/	.	.	.
=12	=12	=12	=12	=12
2F\]	2A/]	2.d\	0.r	0.r
2D\	2F/	.	.	.
.	.	4B\	.	.
2E\	2G/	2c\	.	.
2F\	2A/	2A/	.	.
2.G\	2E/	2B\	.	.
.	2G/	2c\	.	.
4E\	.	.	.	.
=13	=13	=13	=13	=13
2F\	2A/	2d\	1r	0.r
2G\	2B\	1e	.	.
2A\	2c\	.	1r	.
2F\	1A	1d	.	.
1E	.	.	1e	.
.	2G/	2c#i\	.	.
=14	=14	=14	=14	=14
0D	0A	0.d	0f	0a
1D	2.F/	.	1f	1a
.	4G/	.	.	.
=15	=15	=15	=15	=15
0.AA	2A/	0.r	[0.e	0cc
.	1A	.	.	.
.	4G/	.	.	.
.	4F/	.	.	.
.	2E/	.	.	1cc
.	2A/	.	.	.
=16	=16	=16	=16	=16
1r	2G/	0.r	0e]	0b
.	2.E/	.	.	.
1r	.	.	.	.
.	4F/	.	.	.
.	4G/	.	.	.
.	4A/	.	.	.
1E	1B	.	1e	1g
=17	=17	=17	=17	=17
0F	0.A	2r	2c\	0a
.	.	1d	1f	.
.	.	2c\	2e\	.
1F	.	2A/	2.c\	1a
.	.	[2c\	.	.
.	.	.	4d\	.
=18	=18	=18	=18	=18
1E	0.r	2c\]	1e	1g
.	.	1B	.	.
1G	.	.	2e\	2r
.	.	1d	2d\	2b\
2D\	.	.	2f\	2a/
[2A\	.	2c\	2e\	[2cc\
=19	=19	=19	=19	=19
4A\]	0.r	2A/	2.c\	4cc\]
4G\	.	.	.	4b\
2F\	.	1c	.	2a/
.	.	.	4d\	.
2.E\	.	.	1e	2.g/
.	.	1B	.	.
4F\	.	.	.	4a/
2G\	.	.	2e\	2b\
[2A\	.	2e\	4c\	[2cc\
.	.	.	4d\	.
=20	=20	=20	=20	=20
2A\]	1r	2.e\	4e\	2cc\]
.	.	.	4f\	.
2G\	.	.	2.g\	2b\
.	.	4d\	.	.
2A\	1r	2c\	.	4cc\
.	.	.	4f\	4b\
2E\	.	2B\	1e	4a/
.	.	.	.	4g/
1F	1D	2.A/	.	1a
.	.	.	2d\	.
.	.	4B\	.	.
=21	=21	=21	=21	=21
[0.El	2.G/	[0.Bl	[0.el	[0.gl
.	4A/	.	.	.
.	2B\	.	.	.
.	2E/	.	.	.
.	1G	.	.	.
=22	=22	=22	=22	=22
0.E]	0.Gl	0.B]	0.e]	0.g]
!!LO:LB:i:g=z
=23||	=23||	=23||	=23||	=23||
*>B	*>B	*>B	*>B	*>B
*clefF4	*clefGv2	*clefGv2	*clefGv2	*clefG2
*k[]	*k[]	*k[]	*k[]	*k[]
*M2/1	*M2/1	*M2/1	*M2/1	*M2/1
*met(C|)	*met(C|)	*met(C|)	*met(C|)	*met(C|)
!!section: Christe
!!!OMD: Christe
[0C	1r	0r	0e	0r
.	1G	.	.	.
=24	=24	=24	=24	=24
0C]	2G/	0r	1e	0r
.	2.A/	.	.	.
.	.	.	1e	.
.	4B\	.	.	.
.	[2c\	.	.	.
=25	=25	=25	=25	=25
0D	2c\]	0r	1.f	0r
.	4B\	.	.	.
.	4A/	.	.	.
.	1B	.	.	.
.	.	.	4e\	.
.	.	.	4d\	.
=26	=26	=26	=26	=26
[0C	0E	0c	[0e	1r
.	.	.	.	1g
=27	=27	=27	=27	=27
0C]	1.E	0c	0e]	2g/
.	.	.	.	2.a/
.	.	.	.	4b\
.	4D/	.	.	[2cc\
.	4C/	.	.	.
=28	=28	=28	=28	=28
0GG	0G	0d	0r	2cc\]
.	.	.	.	4b\
.	.	.	.	4a/
.	.	.	.	1b
=29	=29	=29	=29	=29
2.C/	0r	0c	1.g	2.e/
4D\	.	.	.	4f/
2E\	.	.	.	2g/
2AA/	.	.	2e\	[2a/
=30	=30	=30	=30	=30
1D	0r	0d	1f	4a/]
.	.	.	.	4g/
.	.	.	.	4f/
.	.	.	.	4e/
1BB	.	.	1f	1d
=31	=31	=31	=31	=31
[0C	1G	[0c	1.e	1r
.	2G/	.	.	[1g
.	[2c\	.	4d\	.
.	.	.	4c\	.
=32	=32	=32	=32	=32
0C]	2c\]	0c]	2e\	1g]
.	4B\	.	1f	.
.	4A/	.	.	.
.	1G	.	.	1g
.	.	.	2e\	.
=33	=33	=33	=33	=33
1r	1F	[0c	0f	1.a
[1F	[1A	.	.	.
.	.	.	.	2f/
=34	=34	=34	=34	=34
2F\]	1A]	0c]	1f	2a/
2G\	.	.	.	2b\
1A	1A	.	1f	1cc
=35	=35	=35	=35	=35
1G	1B	[0d	2g\	1.b
.	.	.	1d	.
1GG	1G	.	.	.
.	.	.	4c\	4a/
.	.	.	4B\	4g/
=36	=36	=36	=36	=36
2FF/	2r	0d_	2A/	2a/
2.GG/	1G	.	2.B\	2g/
.	.	.	.	1dd
4AA/	.	.	4c\	.
4BB/	2G/	.	4d\	.
4C/	.	.	4e\	.
=37	=37	=37	=37	=37
2D\	2F/	0d_	2f\	2a/
2GG/	2B-i\	.	1g	2.dd\
1D	1A	.	.	.
.	.	.	.	4cc\
.	.	.	2f#i\	2a/
=38	=38	=38	=38	=38
1GG	1G	0d]	1g	2.b\
.	.	.	.	4g/
2r	1d	.	2r	2a/
2G\	.	.	2g\	2b\
=39	=39	=39	=39	=39
2C/	0c	0r	2e\	2.cc\
2.F\	.	.	2c\	.
.	.	.	.	4b\
.	.	.	2.f\	4a/
4E\	.	.	.	4g/
2F\	.	.	.	[2a/
.	.	.	4e\	.
=40	=40	=40	=40	=40
2G\	2.B\	0r	2d\	2a/]
2E\	.	.	2c\	2.g/
.	4G/	.	.	.
1D	1A	.	1d	.
.	.	.	.	4f#i/
.	.	.	.	2f#i/
=41	=41	=41	=41	=41
[0GG	0G	0r	1r	0g
.	.	.	1d	.
=42	=42	=42	=42	=42
0GG]	1r	0r	2e\	0r
.	.	.	1d	.
.	1G	.	.	.
.	.	.	2B\	.
=43	=43	=43	=43	=43
0r	2A/	1r	2c\	0r
.	1G	.	2d\	.
.	.	1G	2B\	.
.	2E/	.	2e\	.
=44	=44	=44	=44	=44
1r	2F/	2A/	4d\	0r
.	.	.	4c\	.
.	2.G/	1G	4B\	.
.	.	.	4A/	.
1G	.	.	1B	.
.	4A/	.	.	.
.	4B\	2E/	.	.
.	4c\	.	.	.
=45	=45	=45	=45	=45
2A\	1d	2F/	2A/	0r
1G	.	2.G/	1d	.
.	1B	.	.	.
.	.	4A/	.	.
2E\	.	4B\	2e\	.
.	.	4c\	.	.
=46	=46	=46	=46	=46
4F\	2A/	2d\	2d\	0r
4E\	.	.	.	.
4D\	1G	1c	2e\	.
4C/	.	.	.	.
1D	.	.	1f	.
.	2F/	2B\	.	.
=47	=47	=47	=47	=47
[0C	0G	0c	[0e	1r
.	.	.	.	1g
=48	=48	=48	=48	=48
1C]	0r	1c	0e]	2a/
.	.	.	.	1g
1E	.	1c	.	.
.	.	.	.	2e/
=49	=49	=49	=49	=49
2D\	0r	2d\	0r	2f/
2.C/	.	1e	.	2.g/
4D\	.	.	.	4a/
4E\	.	4d\	.	4b\
4F\	.	4c\	.	4cc\
=50	=50	=50	=50	=50
2G\	0r	2B\	0r	2dd\
2A\	.	2c\	.	1cc
1G	.	1d	.	.
.	.	.	.	2b\
=51	=51	=51	=51	=51
0C	2r	0c	0e	2cc\
.	2G/	.	.	2g/
.	2.c\	.	.	2a/
.	.	.	.	2g/
.	4B\	.	.	.
=52	=52	=52	=52	=52
1r	2A/	1r	1.e	2a/
.	2G/	.	.	2b\
2r	2A/	2r	.	1cc
2C/	2E/	2G/	2c\	.
=53	=53	=53	=53	=53
2G\	0r	2B\	2d\	1b
4F\	.	2c\	2e\	.
4E\	.	.	.	.
2D\	.	2d\	2f\	1r
2G\	.	2B\	2d\	.
=54	=54	=54	=54	=54
0C	2r	0c	0e	2r
.	2G/	.	.	2g/
.	2.c\	.	.	2a/
.	.	.	.	2g/
.	4B\	.	.	.
=55	=55	=55	=55	=55
1r	2A/	1r	1r	2a/
.	2G/	.	.	2b\
2r	2A/	2r	2r	1cc
2C/	2E/	2G/	2e\	.
=56	=56	=56	=56	=56
2G\	2r	2B\	2d\	2b\
4F\	2A/	2c\	2e\	2a/
4E\	.	.	.	.
2D\	2F/	2d\	2f\	4b\
.	.	.	.	4a/
2G\	2G/	2B\	2d\	4g/
.	.	.	.	4f/
=57	=57	=57	=57	=57
0C	4G/	[0cl	1e	1e
.	4F/	.	.	.
.	4E/	.	.	.
.	4D/	.	.	.
.	1E	.	1e	1g
=58	=58	=58	=58	=58
1FF	1C	0c_	0f	1a
1FF	[1A	.	.	[1cc
=59	=59	=59	=59	=59
0F	1A]	0c_	0f	2cc\]
.	.	.	.	2b\
.	1F	.	.	1a
=60	=60	=60	=60	=60
[0Cl	1G	0c_	[0el	[0gl
.	2E/	.	.	.
.	2F/	.	.	.
=61	=61	=61	=61	=61
0C]	0Gl	0c]	0e]	0g]
!!LO:LB:i:g=z
=62||	=62||	=62||	=62||	=62||
*>C	*>C	*>C	*>C	*>C
*clefF4	*clefGv2	*clefGv2	*clefGv2	*clefG2
*k[]	*k[]	*k[]	*k[]	*k[]
*M3/1	*M3/1	*M3/1	*M3/1	*M3/1
*met(O)	*met(O)	*met(O)	*met(O)	*met(O)
!!section: Kyrie II
!!!OMD: Kyrie II
0.r	0G	0.r	0.r	0.r
.	1G	.	.	.
=63	=63	=63	=63	=63
0.r	1.B	0.r	0.r	0g
.	1.c	.	.	.
.	.	.	.	1g
=64	=64	=64	=64	=64
0.r	1d	0.r	0.r	1.b
.	0e	.	.	.
.	.	.	.	1.cc
=65	=65	=65	=65	=65
[0.D	[0.d	0.r	1f	2.dd\
.	.	.	.	4cc\
.	.	.	2f\	2b\
.	.	.	2.f\	2.a/
.	.	.	4e\	4g/
.	.	.	4d\	4f/
.	.	.	4c\	4e/
=66	=66	=66	=66	=66
0D]	0.d]	0.r	4B\	2d/
.	.	.	4A/	.
.	.	.	4d\	2.dd\
.	.	.	4e\	.
.	.	.	2f\	.
.	.	.	.	4cc\
.	.	.	1g	2b\
1D	.	.	.	1a
.	.	.	2f#i\	.
=67	=67	=67	=67	=67
2E\	0.r	0G	2g\	2.g/
1C	.	.	1e	.
.	.	.	.	4a/
.	.	.	.	2b\
4BB/	.	.	4d\	1cc
4AA/	.	.	4c\	.
1GG	.	1G	1d	.
.	.	.	.	2b\
=68	=68	=68	=68	=68
1r	1r	1A	2.c\	0cc
.	.	.	4d\	.
2.AA/	2r	1.c	1e	.
.	1A	.	.	.
4BB/	.	.	.	.
2C/	.	.	1r	1r
2D\	2F/	4B\	.	.
.	.	4A/	.	.
=69	=69	=69	=69	=69
2GG/	4G/	4B\	0.r	0.r
.	4A/	4c\	.	.
2.G\	4B\	4d\	.	.
.	4G/	4e\	.	.
.	2A/	2d\	.	.
4F\	.	.	.	.
2E\	1G	1c	.	.
1D	.	.	.	.
.	2F/	2B\	.	.
=70	=70	=70	=70	=70
0C	0G	[0.c	0e	0g
1C	1G	.	1e	1g
=71	=71	=71	=71	=71
1.F	2F/	0c]	2.f\	1a
.	1A	.	.	.
.	.	.	4e\	.
.	.	.	2c\	1.cc
4E\	4G/	.	2d\	.
4D\	4F/	.	.	.
2C/	2E/	1r	2e\	.
2D\	2D/	.	2f\	4b\
.	.	.	.	4a/
=72	=72	=72	=72	=72
2E\	1.G	0B	2g\	2.g/
2F\	.	.	4f\	.
.	.	.	4e\	4a/
2G\	.	.	1d	2b\
2GG/	2.G/	.	.	2dd\
1AA	.	1c	1r	2cc\
.	4E/	.	.	.
.	2F/	.	.	4cc\
.	.	.	.	4a/
=73	=73	=73	=73	=73
0GG	2r	0d	0B	2b\
.	1G	.	.	1dd
.	2D/	.	.	2dd\
2r	2F/	2A/	2.c\	2.cc\
[2AA/	4E/	[2c\	.	.
.	4D/	.	4d\	4b\
=74	=74	=74	=74	=74
2AA/]	2C/	2c\]	4e\	4a/
.	.	.	4f\	4g/
2GG/	2D/	2B\	2g\	2b\
2AA/	2C/	4c\	2e\	4a/
.	.	4B\	.	4g/
2BB/	2D/	4A/	2d\	1g
.	.	4G/	.	.
2C/	2E/	1A	2c\	.
2D\	2F/	.	2A/	2f#i/
=75	=75	=75	=75	=75
1GG	2D/	0G	1.B	0.g
.	2E/	.	.	.
2r	2D/	.	.	.
2.C/	2.E/	.	2G/	.
.	.	1r	1G	.
4D\	4F/	.	.	.
4E\	4G/	.	.	.
4F\	4A/	.	.	.
=76	=76	=76	=76	=76
2.G\	2.B\	0.r	2r	0.r
.	.	.	4.G/	.
4F\	4A/	.	.	.
.	.	.	8A/	.
2E\	2G/	.	4B\	.
.	.	.	4c\	.
2D\	2F/	.	1d	.
2.G\	2.B-i\	.	.	.
.	.	.	2B\	.
4F\	4A/	.	.	.
=77	=77	=77	=77	=77
4E\	4G/	0.r	4c\	0.r
4D\	4F/	.	4B\	.
4C/	4E/	.	4A/	.
4BB/	4D/	.	4G/	.
2C/	2E/	.	2A/	.
2GG/	1D	.	1G	.
1AA	.	.	.	.
.	2C/	.	2F#i/	.
=78	=78	=78	=78	=78
[0.GG	0D	[0.B	1G	0dd
.	.	.	2r	.
.	.	.	2.G/	.
.	1r	.	.	1b
.	.	.	4A/	.
.	.	.	4B\	.
.	.	.	4c\	.
=79	=79	=79	=79	=79
0GG]	2r	0B]	1d	0g
.	1G	.	.	.
.	.	.	2e\	.
.	2B\	.	1g	.
1r	1A	1c	.	1cc
.	.	.	2f#i\	.
=80	=80	=80	=80	=80
0.r	0G	0d	1.g	1b
.	.	.	.	2b\
.	.	.	4f\	2.g/
.	.	.	4e\	.
.	1G	1B	2d\	.
.	.	.	.	4a/
.	.	.	2e\	4b\
.	.	.	.	4g/
=81	=81	=81	=81	=81
0.r	2.F/	1c	4f\	1a
.	.	.	4e\	.
.	.	.	4d\	.
.	4E/	.	4c\	.
.	2F/	2A/	1d	2f/
.	2G/	2B\	.	2d/
.	2C/	4c\	1c	4e/
.	.	4B\	.	4d/
.	2F/	4c\	.	4e/
.	.	4d\	.	4f/
=82	=82	=82	=82	=82
0.r	2E/	4e\	1r	4g/
.	.	4f\	.	4a/
.	1C	1e	.	1g
.	.	.	1r	.
.	2D/	1d	.	2f/
.	1A	.	2r	1e
.	.	2c#i\	2e\	.
=83	=83	=83	=83	=83
0D	0.A	0d	1.f	2r
.	.	.	.	2.d/
.	.	.	.	4e/
.	.	.	4e\	4f/
.	.	.	4d\	4g/
1F	.	1r	1c	4a/
.	.	.	.	4b\
.	.	.	.	[2cc\
=84	=84	=84	=84	=84
4C/	0.r	0.r	1e	2cc\]
4D\	.	.	.	.
4E\	.	.	.	4b\
4F\	.	.	.	4a/
2G\	.	.	4d\	2b\
.	.	.	4c\	.
2A\	.	.	4B\	1a
.	.	.	4A/	.
1E	.	.	1B	.
.	.	.	.	2g#i/
=85	=85	=85	=85	=85
2AA/	2r	2r	1A	1a
2D\	2A/	2d\	.	.
4G\	4B\	1B	1r	1r
4F\	4A/	.	.	.
4E\	4G/	.	.	.
4D\	4F/	.	.	.
1E	1G	1c	2r	1r
.	.	.	2e\	.
=86	=86	=86	=86	=86
0D	0A	0d	1.f	2r
.	.	.	.	1a
.	.	.	4e\	4g/
.	.	.	4d\	4f/
1r	2r	1r	2e\	2g/
.	2A/	.	2c\	2e/
=87	=87	=87	=87	=87
0.r	4E/	0.r	2e\	4g/
.	4F/	.	.	4a/
.	4G/	.	4d\	4b\
.	4A/	.	4c\	4cc\
.	2G/	.	4d\	2b\
.	.	.	4c\	.
.	2A/	.	4B\	1a
.	.	.	4A/	.
.	1E	.	1B	.
.	.	.	.	2g/
=88	=88	=88	=88	=88
2r	1r	2r	1A	2f/
2D\	.	2d\	.	2a/
4G\	1r	1B	1r	4b\
4F\	.	.	.	4a/
4E\	.	.	.	4g/
4D\	.	.	.	4f/
1A	2r	1c	1r	2e/
.	[2A/	.	.	2a/
=89	=89	=89	=89	=89
1D	2A/]	[0.d	1A	2f/
.	2F/	.	.	2a/
2r	2G/	.	4G/	2b\
.	.	.	4A/	.
2.GG/	4F/	.	4B\	2.dd\
.	4E/	.	4c\	.
.	2D/	.	2.d\	.
4AA/	.	.	.	4cc\
4BB/	[2D/	.	.	4b\
4C/	.	.	4e\	4a/
=90	=90	=90	=90	=90
2.D\	4D/]	0.d]	1f	2b\
.	4E/	.	.	.
.	4F/	.	.	1a
4E\	4G/	.	.	.
4F\	2A/	.	2f\	.
4D\	.	.	.	.
2G\	2B\	.	2.d\	2.g/
1D	1A	.	.	.
.	.	.	4c\	4f#i/
.	.	.	2A/	2f#i/
=91	=91	=91	=91	=91
2r	[0.Gl	2r	2B\	[0.gl
2GG/	.	2B\	2d\	.
2C/	.	2c\	2e\	.
2GG/	.	2B\	2d\	.
1C	.	1c	1e	.
=92	=92	=92	=92	=92
0.GGl	0.G]	0.Bl	0.dl	0.g]
==	==	==	==	==
*-	*-	*-	*-	*-
!!!RDF**kern: l=long note in original notation
!!!RDF**kern: i=editorial accidental
!!!RDF**kern: V=start of tuplet marker
!!!RDF**kern: Z=end of tuplet marker
!!!ENC:	Chris Gage 04-16-2013
!!!END:	2013/08/01/
!!!EED:	Jesse Rodin
!!!EEV:	2013/08/02/
!!!ONB:	Translated from MusicXML and edited on 2013/08/02/ by Craig Sapp
!!muse2ps: T^@{OPR}^u^@{ONM}{. }@{OTL}^C^@{COM}^i2I150v85,85,85,85,130c140
